!!!SOCIAL_FUNCTION:	dance songs
!!!PDT:	1932
!!!OTL: No_115_Dancing_Song_(a).krn
!!!REG: Southwest
!!!LANG: Non-Tone
!!!LING_GROUP: Yuman-Cochimi
**kern	**kern
*staff2	*staff1
=1-	=1-
*clefF4	*clefF4
*k[f#]	*k[f#]
*M2/4	*M2/4
8GG/	8.B\L
16r	.
16GG/	16G\Jk
8GG/	8.A\L
16r	.
16GG/	16G\Jk
=2	=2
8GG/	4..G\
16r	.
16GG/	.
8GG/	.
16r	.
16GG/	16E\
=3	=3
8GG/	8.E\L
16r	.
16GG/	16G\Jk
8GG/	8.G\L
16r	.
16GG/	16A\Jk
=4	=4
8GG/	8G\L
16r	[8G\J
16GG/	.
8GG/	8G\]
16r	8r
16GG/	.
=5	=5
8GG/	8.B\L
16r	.
16GG/	16G\Jk
8GG/	8.A\L
16r	.
16GG/	16G\Jk
=6	=6
8GG/	4..G\
16r	.
16GG/	.
8GG/	.
16r	.
16GG/	16E\
=7	=7
8GG/	8.E\L
16r	.
16GG/	16G\Jk
8GG/	8.G\L
16r	.
16GG/	16A\Jk
=8	=8
8GG/	8G\L
16r	[8G\J
16GG/	.
8GG/	8G\]
16r	8r
16GG/	.
=9	=9
8GG/	8.B\L
16r	.
16GG/	16G\Jk
8GG/	8.A\L
16r	.
16GG/	16G\Jk
=10	=10
8GG/	4..G\
16r	.
16GG/	.
8GG/	.
16r	.
16GG/	16E\
=11||	=11||
*M4/4	*M4/4
8GG/	8E\
16r	8r
16GG/LK	.
8GG/J	8G\L
16r	8G\J
16GG/	.
8GG/	8G\L
16r	[8G\
16GG/LK	.
8GG/J	8.G\]
16r	.
16GG/	16A\Jk
=12||	=12||
*M2/4	*M2/4
8GG/	8.B\L
16r	.
16GG/	16G\Jk
8GG/	8.A\L
16r	.
16GG/	16G\Jk
=13	=13
8GG/	4..G\
16r	.
16GG/	.
8GG/	.
16r	.
16GG/	16E\
=14	=14
8GG/	8.E\L
16r	.
16GG/	16G\Jk
8GG/	8.G\L
16r	.
16GG/	16A\Jk
=15	=15
8GG/	8G\L
16r	[8G\J
16GG/	.
8GG/	8G\]
16r	8r
16GG/	.
=16	=16
8GG/	8.B\L
16r	.
16GG/	16G\Jk
8GG/	8.A\L
16r	.
16GG/	16G\Jk
=17	=17
8GG/	4..G\
16r	.
16GG/	.
8GG/	.
16r	.
16GG/	16E\
=18||	=18||
*M4/4	*M4/4
8GG/	8E\
16r	8r
16GG/LK	.
8GG/J	8G\L
16r	8G\J
16GG/	.
8GG/	8G\L
16r	[8G\
16GG/LK	.
8GG/J	8.G\]
16r	.
16GG/	16A\Jk
=19	=19||
*	*M2/4
.	8.B\L
=	--
*M2/4	*
8GG/	.
16r	.
16GG/	16G\Jk
8GG/	8.A\L
16r	.
16GG/	16G\Jk
=20	=20
8GG/	4..G\
16r	.
16GG/	.
8GG/	.
16r	.
16GG/	16E\
=21	=21
8GG/	8.E\L
16r	.
16GG/	16G\Jk
8GG/	8.G\L
16r	.
16GG/	16A\Jk
=22	=22
8GG/	8G\L
16r	[8G\J
16GG/	.
8GG/	8G\]
16r	8r
16GG/	.
=23	=23
2r	2r
=24	=24
2r	4r
.	8.r
.	16G\
=25	=25
8GG/	16A\LK
.	8.B\J
16r	.
16GG/	.
8GG/	4B\
16r	.
16GG/	.
=26	=26
8GG/	4..B\
16r	.
16GG/	.
8GG/	.
16r	.
16GG/	16G\
=27	=27
8GG/	8.A\L
16r	.
16GG/	16B\Jk
8GG/	8.B\L
16r	.
16GG/	16A\Jk
=28	=28
8GG/	8B^\L
16r	8B^\J
16GG/	.
8GG/	8G^\L
16r	8A^\J
16GG/	.
=29	=29
8GG/	8.B^\L
16r	.
16GG/	16G\Jk
8GG/	8.A\L
16r	.
16GG/	16G\Jk
=30	=30
!!pagebreak:default
8GG/	4.E\
16r	.
16GG/	.
8GG/	.
16r	8E\
16GG/	.
=31	=31
8GG/	8.E\L
16r	.
16GG/	16G\Jk
8GG/	8.G\L
16r	.
16GG/	16A\Jk
=32	=32
8GG/	8G\L
16r	[8G\J
16GG/	.
8GG/	8G\]
16r	8r
16GG/	.
=33	=33
8GG/	8.B\L
16r	.
16GG/	16G\Jk
8GG/	8.A\L
16r	.
16GG/	16G\Jk
=34	=34
8GG/	4..G\
16r	.
16GG/	.
8GG/	.
16r	.
16GG/	16E\
=35||	=35||
*M4/4	*M4/4
8GG/	8E\
16r	8r
16GG/LK	.
8GG/J	8G\L
16r	8G\J
16GG/	.
8GG/	8G\L
16r	[8G\
16GG/LK	.
8GG/J	8.G\]
16r	.
16GG/	16A\Jk
=36||	=36||
*M2/4	*M2/4
8GG/	8.B\L
16r	.
16GG/	16G\Jk
8GG/	8.A\L
16r	.
16GG/	16G\Jk
=37	=37
8GG/	4..G\
16r	.
16GG/	.
8GG/	.
16r	.
16GG/	16E\
=38	=38
8GG/	8.E\L
16r	.
16GG/	16G\Jk
8GG/	8.G\L
16r	.
16GG/	16A\Jk
=39	=39
8GG/	8G\L
16r	[8G\J
16GG/	.
8GG/	8G\]
16r	8r
16GG/	.
==	==
*-	*-
